X:443
%%etbk:tnset id:133,pos:1,rep:3x,ant:
%%etbk:wsite http://www.thesession.org/tunes/display/10230
%%etbk:pldat 2016-03-28T16:06,2016-03-22T15:37,2016-01-02T13:14,2015-12-11T17:33,2015-12-10T18:18,2015-12-10T17:34,2015-12-09T15:34,2015-12-08T14:48,2015-12-07T18:01,2015-12-06T12:49,2015-12-03T18:10,2015-12-02T15:11,2015-12-01T15:17,2015-11-30T18:51,2015-11-29T13:51,2015-11-28T14:57,2015-11-28T14:52,2015-11-26T18:13,2015-11-04T15:48,2015-11-03T15:37,2015-11-01T14:31,2015-10-25T13:34,2015-10-21T17:47,2015-10-08T18:00,2015-10-06T17:37,2015-10-05T18:53,2015-09-29T15:30,2015-09-07T18:37,2015-09-02T15:14,2015-08-30T15:59,2015-08-19T16:46,2015-05-28T18:24,2015-05-27T18:37,2015-05-26T17:56,2015-04-23T18:57,2015-04-22T16:18,2015-04-21T16:23,2015-03-06T17:57,2015-02-16T18:02,2015-02-14T14:46,2014-12-07T11:50,2014-05-20T16:35,2014-02-07T15:26,2013-10-16T16:47
T: Piper In The Cave, The
Z: Piano Box Version by Martin Fleischmann
H: Created 2013-02-19 /  Last Modified 2013-02-19
M: 4/4
L: 1/8
R: march
K:Bdor
"bm"!2!f3a "E"!3!gg!1!e!3!g | "bm"!2!f2!1!B2 B3!3!f | !3!fe!1!d!3!c !2!Bcd!5!e | !2!fffa "E"!3!gfeg |
"bm"!2!f3a "E"!3!ggeg | "bm"!2!f2!1!B2 B3!2!e | "A"!2!e!1!d!3!cB !1!ABcd | !5!e3!3!c d2 !5!e2 |
"bm"!2!f3a "E"!3!ggeg | "bm"!2!f2!1!B2 B3!3!f | !3!fe!1!d!3!c !2!Bcd!5!e | !2!fffe f2 !3!g!4!a |
!5!bagb !4!agfa | !3!ggeg !2!f3!1!e | "A"!2!e!1!d!3!cB !1!ABcd| !5!e3c d2!3!cc ||
"B"!1!B2!5!b2 !2!^d2b2 | !3!f2b2 b4 | !3!f2!5!b!3!f !1!Bc!3!^d!1!e | !2!f3f {a}!2!f!1!e!3!^d!2!c |
!1!B2!5!b2 !2!^d2b2 | !3!f2!5!b2 b4 | "A"!2!e!1!d!3!cB !1!ABcd | !5!e3!3!c d2!3!cc |
"B"!1!B2!5!b2 !2!^d2b2 | !3!f2!5!b2 b4 | !3!f2!5!b!3!f !1!Bc!3!^d!1!e | "bm"!2!f2fe !2!f2ga |
!5!bagb !4!agfa | !3!ggeg !2!f3!1!e | "A"!2!e!1!d!3!cB !1!ABcd | !5!e3!3!c d2!5!e2 ||
"bm"!2!f2!1!B2 "E"!3!gg!1!e!3!g | "bm"!2!f2!1!B2 !1!B!2!c!1!d!2!e | !3!f3!2!f !2!f!1!e!2!c!1!e | !2!ff ff !2!f!1!e!2!c!1!e |
"bm"!2!f2!1!B2 "E"!3!gg!1!e!3!g | !2!f2!1!B2 !1!B!2!c!1!d!3!f | "A"!2!e3!4!e !4!e!2!c!1!A!2!c | !4!e2ec d2!4!e2 |
"bm"!3!f2!1!B2 "E"!3!gg!1!e!3!g | "bm"!2!f2!1!B2 !1!B!2!c!1!de | !3!f3!2!f !2!f!1!e!2!c!1!e | !2!ff fe !2!f2ga |
!5!bagb !2!agfa | !3!ggeg !2!f3!1!e | "A"!2!edcB !1!ABcd | !5!e3c d2!5!e2 ||


